X:1
T:Title
%%score { ( 1 3 ) | 2 }
L:1/8
M:4/4
K:Eb
V:1 treble nm="Grand Piano"
V:3 treble 
V:2 bass 
V:1
 z4 z2[Q:1/4=100] [EG][FA] | [GB]3 [Ac] [GB]2 [EG][FA] | [EG]2 [DF]2 [DF]2 [DF][EG] | %3
 [FA]3 [GB] [FA]2 [EG][DF] | [EG]2 [GB]2 [GB]2 [Ge]2 | d3 c B2 =A2 | [DB]6 [DB]2 | %7
 [DB]2 [DF]2 [EG]2 [FA]2 | G3 F E2 [GB]2 | [Ac]2 [ce]2 [Bd]2 [Ac]2 | [Ac]3 [GB] [GB]2 [GB]2 | %11
 [Ge]2 z F G2 [A,DF]2 |[M:3/4] [G,E]6 |[M:1/4] [B,EG]2 |[M:4/4] [B,EG]3 [B,DF] [B,DF]2 [B,FA]2 | %15
 [B,FA]3 [B,EG] [B,EG]2 [EGB]2 | [EAc]2 [Ece]2 [EBd]2 [EAc]2 |[M:3/4] [GB]6 |[M:1/4] [GB]2 | %19
[M:4/4] [Ge]3 [Ge] [GB]2 [Ge]2 | d2 c2 A2 [CF]2 | [B,E]3 [EG] [DG]2 [DF]2 |[M:3/4] E6 |] %23
V:2
 z4 z2 [E,B,]2 | [E,E]3 [E,E] [E,E]2 [E,B,]2 | [B,,B,]2 [B,,B,]2 [B,,B,]2 [B,,B,]2 | %3
 [B,,B,]3 [B,,B,] [B,,B,]2 [B,,B,]2 | [E,B,]2 [E,E]2 [E,E]2 [E,B,]2 | %5
 [F,B,F]3 [F,EF] [F,DF]2 [F,CE]2 | [B,,B,]6 [B,,F,]2 | [B,,F,]2 [B,,B,]2 [B,,B,]2 [B,,B,]2 | %8
 [E,B,E]3 [E,A,E] [E,G,]2 [E,E]2 | [A,E]2 [A,E]2 [A,E]2 [A,E]2 | [E,E]3 [E,E] [E,E]2 [E,E]2 | %11
 [E,B,]2 [G,B,][A,C] [B,E]2 B,,2 |[M:3/4] E,6 |[M:1/4] E,2 |[M:4/4] B,,3 B,, B,,2 D,2 | %15
 E,3 E, E,2 E,2 | A,2 A,2 A,2 A,2 |[M:3/4] [E,E]6 |[M:1/4] [E,E]2 | %19
[M:4/4] [E,B,]3 [E,B,] [E,E]2 [E,B,]2 | [A,CF]2 [A,CF]2 [A,CF]2[K:bass] [A,,A,]2 | %21
 [B,,G,]3 [B,,B,] [B,,B,]2 [B,,A,]2 |[M:3/4] [E,G,]6 |] %23
V:3
 x8 | x8 | x8 | x8 | x8 | x8 | x8 | x8 | x8 | x8 | x8 | z2 E2 z4 |[M:3/4] x6 |[M:1/4] x2 | %14
[M:4/4] x8 | x8 | x8 |[M:3/4] x6 |[M:1/4] x2 |[M:4/4] x8 | x8 | x8 |[M:3/4] x6 |] %23

